X: 9
P: Polska efter P\aal-Karl
O: \"Alvdalen
R: \"Alvdalspolska
Z: 2000 Brian Wilson 
M: 3/4
L: 1/8
K: Am
|: A^c d>e ^fg \
| ab ag e>^f \
| (3:2:4g2 ~g2 eg ^f(e/d/) \
| (^f{gf}e)  (e<^c) A2- \
| A^c d>e ^fg |
| ab ag e>^f \
| (3:2:4g2 ~g2 eg ^fe/d/ \
| (^fe) (e^c) A>B \
| (3:2:4=c2 c2 Ac BA \
| (GB) A4 :|
|: (3Acd e2 e>B \
| (3:2:4cd e2 d2 e>B \
| cd e2 e>B \
| (3:2:4cd e2 d2 e>B \
| (3:2:2c2 c2 Ac B>A \
| (GB) A4 :|
%%newpage
